X: 1
T: Flowers Of Edinburgh
T: 8 x 32R 3C (RSCDS Bk 1)
P: Flowers Of Edinburgh
C: arr. Terry Traub 7-30-2000
R: Reel
M: 4/4
K: G
L: 1/8
|: GE|"G"D2 DE G2 GA|BGBd cBAG|"D"FGFE DEFG|AFdF "C"E2 GE|"G"D2 DE G2 GA|
"G"BGBd "C"efge|"D"dcBA GFGA|"G"B2 G2 G2 :||: Bd|"G"g2 g2 gbag|"D (B7)"f2 f2 fagf|
"G"edef gfed|"Em"B2 e2 "C"e2 ge|"G"dBGB d2 ^cd|"C"edef g2 fe|"D"dcBA GFGA|"G"B2 G2 G2 :|
